X:1
T:Expurgate vetus fermentum
T:Johannes Castileti
T:Source: Novum et Insigne Opus Musicum---Nürnberg---Montanus et Neuberus---1559. Editor: André Vierendeels (16/12/95)
T:Expurgate vetus fermentum
C:Johannes Castileti
%%score [ 1 [ 2 3 4 ] ]
L:1/8
Q:1/4=120
M:2/2
K:C
V:1 treble nm="Soprano" snm="S"
V:2 treble-8 nm="Tenor 1" snm="T 1"
V:3 treble-8 nm="Tenor 2" snm="T 2"
V:4 treble-8 nm="Tenor 3" snm="T 3"
V:1
 z8 | z8 | z8 | z8 | z8 | G8 | B4 d4 | G8 | z2 G4 B2- | B2 d4 A2- | A2 c2 B2 G2 | B3 A/G/ A2 G2- | %12
w: |||||Ex-|pur- ga-|te|ve- tus|_ fer- men-|||
"^#" G2 F2 G4 | z2 F2 G2 E2 | F2 A3 G G2- |"^#" G2 F2 G4- | G8 | z8 | z4 z2 d2 | d2 G2 B4 | %20
w: * * tum,|Al- le- lu|ia, Al- * le-|* lu- ia,|_||ut|sci- * tis|
 A3 B c2 B2- | BABc de f2- | fe e3 d d2- | dc c4 BA | B2 B2 A4- | A8 | z2 A2 d2 d2- | d2 d2 c4 | %28
w: no- va con- sper-|||* si- o, con- *|sper- si- o,|_|Pa- scha et-|* e- nim|
 d4 A2 f2 | e2 d4 c2 | d8 | z4 d4- | d2 c2 B2 GA | BcdB c2 d2- |"^#" d2 c2 d4- | d4 z2 d2- | %36
w: no- strum, no-||strum|im-|* mo- la- * *|* * * * tus est|_ Chri- stus,|_ al-|
 d2 c2 B3 A | GF A3 G G2- |"^#" G2 F2 G4 | G4 F2 E2 | DE FE/F/ G4 | z8 | z8 | d4 c2 B2 | %44
w: * le- lu- *||* * ia,|al- le- *|lu- * * * * ia.|||I- ta- que|
 d2 c2 B2 A2 | G3 F E2 D2 | A4 B4 | A4 z4 | z8 | d4 c2 B2 | d2 c2 B4 | A2 A4 B2- | BAGF A2 G2- | %53
w: e- pu- le- mur|in _ _ Do-|* mi-|no,||i- ta- que|e- pu- le-|mur in _|_ _ _ _ _ Do-|
 G2 F2 G2 z G | G2 A2 B4 | z4 G4 | A2 B2 G4 | z4 A4 | c2 d2 B4- | B2 AG A2 G2- | G2 F2 G4- | G8 || %62
w: * mi- no, al-|le- lu- ia,|al-|le- lu- ia,|al-|le- * *||* lu- ia.|_|
 d6 d2 | d4 e4 | d2 g2 g2 f2 | e6 d2 | f2 e2 defd | e2 d4 c2 | B2 AG A4 | B2 d3 c c2- | c2 B2 c4 | %71
w: Non in|fer- men-|to ma- li- ci-|ae _|_ _ _ _ _ _|et ne- qui-|ti- * * *|ae, et ne- qui-|* ti- ae,|
 z2 G4 G2 | G4 A4 | G2 c2 c2 B2 | A3 G/A/ B4 | G8 | z2 A2 A2 A2 | B3 A/G/ A2 c2 | c2 B2 A2 A2- | %79
w: non in|fe- men-|tum ma- li- ci-||ae,|ma- li- ci-|ae _ _ _ et|ne qui- * ti-|
 AB c2 d2 f2- | f2 ed e2 d2- | d2 c2 d4 | z2 d4 c2 | B3 A/G/ A2 G2- |"^#" G2 F2 G4- | G4 z2 B2- | %86
w: * * * ae, et|_ ne- * qui- *|* ti- ae|al- le-|lu- * * * *|* * ia,|_ sed|
 B2 A2 B2 c2 | d4 z4 | z8 | z2 c2 c2 B2 | A4 z2 G2- | G2 F2 ED G2- |"^#" G2 F2 G4- | G4 z4 | z8 | %95
w: _ in a- zy-|mis,||al- le- lu-|ia, al-|* le- lu- * *|* * ia,|_||
 z2 d4 c2 | B2 A3 G G2- |"^#""^#" G2 FE F4 | G4 G4 | F2 E2 DE FE/F/ | G4 z4 | z8 | z4 d4 | %103
w: al- le-|lu- * * *||ia, al-|le- lu- * * * * *|iia.||I-|
 c2 B2 d2 c2 | B2 A2 G3 F | E2 D2 A4 | B4 A4 | z8 | z4 d4 | c2 B2 d2 c2 | B4 A2 A2- | A2 B3 A GF | %112
w: ta- que e- pu-|le- mur in _|_ Do- *|mi- no,||I-|ta- que e- pu-|le- mur in|_ _ _ _ _|
"^#" A2 G4 F2 | G2 z G G2 A2 | B4 z4 | G4 A2 B2 | G4 z4 | A4 c2 d2 | B6 AG |"^#" A2 G4 F2 | G8 |] %121
w: Do- * mi-|no, al- le- lu-|ia,|al- le- lu-|ia,|Al le- lu-|||ia.|
V:2
 z8 | z8 | z8 | z8 | z8 | z8 | z8 | c8 | e4 g4 | d4 f4 | e4 g4- | g2 d2 f2 e2 | d2 d2 B2 c2 | %13
w: |||||||Ex-|pur- ga-|te ve-|tus fer-|* men- * *|tum, fer- men- *|
 A4 z2 A2 | d2 f2 e4 | z2 d2 d2 G2 | B3 c d2 e2 | A2 f2 f2 d2 | f4 ec d2 | G2 g2 g2 d2 | %20
w: tum, al-|le- lu- ia,|ut sci- tis|no- * * va|con- per- si- o,|ut sci- * tis|no- va con- sper-|
 f2 ed c2 g2- | gfde fg a2- | a2 g2 f4 | z2 e2 g2 g2- | g2 g2 f2 f2- | fe/d/ f2 e2 c2 | %26
w: * si- * o, con-|* * * * * * sper-|* si- o,|Pa- scha et-|* e- nim no-||
 e3 f g2 a2- | a2 g2 a4- | a8 | z4 a4- | a2 g2 f2 ed | f2 e2 d2 g2 | (3e2 f2 g2 d4 | z2 a4 g2 | %34
w: |* * strum|_|im-|* mo- la- * *|* tus est Chri-|* * * stus,|al- le-|
 a4 f4 | z4 g4 | f2 e2 d2 d2- | d2 A2 c4 | d4 B4 | z4 z2 g2- | g2 f2 e2 g2 | f2 e2 d2 e2- | %42
w: lu- ia,|al-|le- lu- ia, al-|* le- lu-|* ia.|I-|* ta- que e-|pu- le- mur in|
 ed d4 c2 | d4 z4 | z8 | z4 g4 | f2 e2 g4 | f2 e2 d2 f2 | e2 d3 c BA | B2 A4 G2 | A2 a2 g4 | %51
w: _ _ Do- mi-|no,||I-|ta- que e-|pu- le- mu in|Do- * * * *|* * mi-|no, e- pu-|
 e4 f2 d2- | d2 e4 c2 | d4 z2 d2 | e2 f2 d4 | z4 d4 | f2 g2 e4 | z4 f4 | e2 d2 g4 | z2 e2 f2 e2 | %60
w: le- mur in|_ Do- mi-|no al-|le- lu- ia,|al-|le- lu- ia,|al-|le- lu- ia,|al- le- *|
 d4 d4- | d8 || z8 | g6 g2 | g4 a4 | g2 c'2 c'2 b2 | abc'a b2 a2- | ag f2 e2 a2- |"^#" ag g4 f2 | %69
w: lu- ia.|_||Non in|fer- men-|to ma- li- ci-|ae, _ _ _ _ ma-|* * * li- *|* * * ci-|
 g8- | g4 z4 | z8 | z8 | z4 d4- | d2 d2 d4 | e4 d2 g2 | g2 f2 e3 d/c/ | d4 c4 | z4 f4 | f2 e2 d4 | %80
w: ae|_|||non|_ in fer-|men- to ma-|li- ci- * * *|* ae,|al-|le- lu- ia,|
 f4 e2 a2- | ag e2 f4 | g4 f2 e2 | d4 z4 | d6 d2 | B2 c2 d2 g2- | g2 f2 d2 e2 | f2 g4 fe | %88
w: al- le- lu-|* * * ia,|al- le- lu-|ia,|sed in|a- zy- mis sin-|* ce- ri- ta-|tis, sin- ce- *|
 dc e3 d d2- | d2 c2 d4 | f4 c2 e2- | e2 d2 B2 c2 | d4 z2 d2 | c2 B2 AG g2- | g2 f2 e2 d2 | %95
w: * * * ri- ta-|* * tis|et ve- ri-|* ta- * *|tis, et|ve- ri- ta- * *||
 ef ge/f/ a4 | f4 f2 e2 | d8 | B4 z4 | z2 g4 f2 | e2 g2 f2 e2 | d2 e3 d d2- | d2 c2 d4 | z8 | z8 | %105
w: * * * * * tis,|et ve- ri-|ta-|tis,|I- ta-|que e- pu- le-|mur in _ Do-|* mi- no,|||
 g4 f2 e2 | g4 f2 e2 | d2 f2 e2 d2- | dcBA B2 A2- | A2 G2 A2 a2 | g4 e4 | f2 d4 e2- | e2 c2 d4 | %113
w: I- ta- que|e- pu- le-|mur in Do- *||* mi- no, in|Do- mi-|no, al- le-|* lu- ia,|
 z2 d2 e2 f2 | d4 z4 | d4 f2 g2 | e4 z4 | f4 e2 d2 | g4 z2 e2 | f2 e2 d4 | d8 |] %121
w: al- le- lu-|ia,|al- le- lu-|ia,|al- le- lu-|ia, al-|le- * lu-|ia.|
V:3
 G8 | B4 d4 | G4 c4 | B2 G2 B4 | A2 f2 e2 c2 | e4 d3 c | d2 e2 fd f2- | f2 ed e4 | z2 c2 B2 G2 | %9
w: Ex-|pur- ga-|te ve-|tus fer- men-|tum, ve- tus fer-|men- * *||* * * tum,|ve- tus fer-|
 B4 A2 d2- | d2 c2 d2 e2 | d2 cB c2 B2 | A4 G4 | d4 B2 c2 | A2 d2 B2 c2 | A4 G4- | G4 z2 c2 | %17
w: men- * *|||* tum,|al- le- lu-|ia, al- le- *|lu- ia|_ ut|
 c2 A2 d4 | A3 B c2 g2 | g2 e2 g4 | d2 c2 e3 e | d2 cB A2 A2- | A2 B2 c2 d2 | e2 c2 d4 | %24
w: sci- tis no-|va, _ _ ut|sci- tis no-|va con- sper- si-|o, _ _ _ con-|* sper- * *|* si- o,|
 z2 G2 d2 d2- | d2 d2 c3 B | cdec de f2- | f2 ed e4 | f6 d2 | e2 f2 e4 | d4 z4 | z8 | z4 g4- | %33
w: Pa- scha et-|* e- nim _|_ _ _ _ _ _ _|||* * no-|strum||im-|
 g2 f2 e2 d2 | f2 e2 d4 | z2 d2 c2 B2 | A4 B3 c | dB c3 B AG | A4 G2 d2 | c2 B2 AB cB/c/ | d4 z4 | %41
w: * mo- la- tus|est Chri- stus,|Al- le- lu-|ia, al- *|le- * * * * *|lu- ia, al-|le _ lu- * * * *|ia,|
 z8 | z4 z2 g2- | g2 f2 e2 g2 | f2 e2 d3 c | BA c3 B G2 | A2 A2 G4 | z8 | z4 z2 g2- | g2 f2 e2 g2 | %50
w: |I-|* ta- que e-|pu- le- mur _|_ _ in _ _|Do- mi- no,||al-|* le- lu- ia,|
 f3 e/d/ e2 d2- |"^#" d2 c2 d2 d2 | B2 c3 B AG | A2 A2 G4 | z4 z2 B2 | c2 d2 B4 | z4 c4 | %57
w: al- * * * le-|* lu- ia, al-|le- * * * *|* lu- ia,|al-|le- lu- ia,|al-|
 B2 A2 d4 | z4 d4 | B2 c4 B2 | A4 G4- | G8 || z8 | z8 | z8 | z4 z2 d2 | d2 c2 BcdB | c2 d2 A4 | %68
w: le- u- ia,|al-|le- * *|lu- ia.|_||||Ma-|li- ci- ae _ _ _|_ _ non|
 d6 d2 | d4 e4 | d2 g2 g2 f2 | e6 d2 | e3 d c2 f2- | f2 e2 d2 g2- | g2 f2 g2 GA | BG c4 B2 | A8 | %77
w: in fer-|men- to|ma- li- ci- ae|et ne-|qui- ti- ae et|_ ne- qui- ti-|* * ae, et _|_ _ ne- qui-|ti-|
 G2 g2 g2 f2 | e3 d c2 d2- | d2 c2 f3 g | a2 f2 gfed | e2 e2 d4 | z4 z2 A2 | BcdB cBAG | A4 G4- | %85
w: ae, ma- li- ci-|ae _ _ et|_ ne- qui- ti-|ae, ne- qui- * * *|* ti- ae,|al-|le- * * * * * * *|lu- ia,|
 G4 z4 | z8 | z8 | z2 g4 g2 | e2 f2 g2 d2- | d2 c2 A2 B2 | c2 A4 G2 | A4 G4 | z4 c4 | B2 A2 G4 | %95
w: _|||sed in|a- zy- mis sin-|* ce- ri- ta-|tis, al- le-|lu- ia,|al-|le- lu- ia,|
 g4 f2 e2 | d2 d2 c2 B2- | B2 AG A4 | G2 d2 c2 B2 | AB cB/c/ d4 | z8 | z8 | z2 g4 f2 | %103
w: al- le- lu-|ia, al- le- lu-||a, al- le- lu-|* * * * * ia.|||I- ta-|
 e2 g2 f2 e2 | d3 c BA c2- | cB G2 A2 A2 | G4 z4 | z8 | z2 g4 f2 | e2 g2 f3 e/d/ | e2 d4 c2 | %111
w: que e- pu- le-|mur _ _ _ in|_ _ _ Do- mi-|no,||al- le-|lu- * * * *||
 d2 d2 B2 c2- | cBAG A2 A2 | G4 z4 | z2 B2 c2 d2 | B4 z4 | c4 B2 A2 | d4 z4 | d4 B2 c2- | %119
w: ia, al- le- *|* * * * * lu-|ia,|al- le- lu-|ia,|al- le- lu-|ia,|al- le- lu-|
 c2 B2 A4 | G8 |] %121
w: |ia.|
V:4
 z8 | z8 | C8 | E4 G4 | D4 A4 | G2 E2 G4- | G2 FE D4 | C4 z4 | C4 E4 | G4 D4 | A4 G2 E2 | %11
w: ||Ex-|pur- ga-|te ve-|tus fer- men-||tem,|ex- pur-|ga- te|ve- tus fer-|
 G4 F2 G2 | D2 D2 E2 C2 | D4 z4 | D4 E2 C2 | D4 G4 | z2 G2 G2 C2 | F4 D2 D2- | DEFG A2 G2 | %19
w: men- * *|tum, al- le- lu-|ia,|al- le- *|lu- ia,|ut sci- tis|no- va con-||
 B2 c2 G4 | z2 A2 A2 E2 | G4 D3 E | F2 G2 A2 B2 |"^#" c2 A2 G4- | G4 z4 | D4 A4 | A4 G2 F2 | %27
w: sper- si- o,|ut sci- tis|no- va con-|sper- * * *|* si- o,|_|Pa- scha|et- e- nim|
"^b" B4 A2 A2 | d2 d4 d2 | c2 d2 A4 | z4 d4- | d2 c2 B2 AG | B2 A2 G3 F | E2 D2 A2 B2 | A4 D4- | %35
w: no- strum, Pa-|scha et- e-|nim no- strum|im-|* mo- la- * *|* tus est _|_ Chri- * *|* stus,|
 D4 z4 | z4 G4- | G2 F2 E4 | D4 G4 | z2 d4 c2 | B2 d2 c2 B2 | A3 G F2 G2- | GF D2 E2 E2 | D4 z4 | %44
w: _|al-|* le- *|lu- ia.|I- ta-|que e- pu- le-|mur _ _ Do-|* * * * mi-|no,|
 z8 | z4 z2 d2- | d2 c2 B2 d2- | d2 c2 B2 A2- | AGFE F2 G2- | GF D2 E2 E2 | D2 F2 G4 | A4 D2 G2- | %52
w: |I|_ ta- que e-|* pu- le- *|* * * * mur in|_ _ _ Do- mi-|no, al- le-|lu- ia, al-|
 GFED C2 E2 |"^#" D4 G4 | z4 G4 | E2 D2 G4 | z4 C4 | E2 F2 D4 | z4 G4- | G2 C2 F2 G2 | D4 G4- | %61
w: * * * * le- le-|lu- ia,|al-|le- lu- ia,|al-|le- lu- ia,|al|_ le- * *|lu- ia.|
 G8 || z8 | z8 | z8 | z8 | z8 | z8 | z8 | G6 G2 | G4 A4 | G2 c2 c2 B2 | c3 B A2 F2 | c4 G3 F | %74
w: _||||||||Non in|fer- men-|to ma- li- ci-|ae _ _ et|ne- qui- ti-|
 D4 G4 | E2 C2 G4 | D4 z2 c2 | c2 B2 A3 G | A2 E2 F2 DE | FG A2 D2 d2- | d2 d2 c2 d2 | A4 z2 d2 | %82
w: ae, et|ne- qui- ti-|ae, ma-|li- ci- ae et|ne- qui- ti- * *|* * * ae, et|_ ne- qui- ti-|ae, al-|
 c2 B2 A4 | z2 G2 F2 E2 | D4 z4 | G6 G2 | E2 F2 G2 c2- | c2 B2 G2 A2 | B2 c3 B AG | A4 G4 | %90
w: le- lu- ia,|al- le- lu-|ia,|sed in|a- zy- mis sin-|ce- ri- ta- *||* tis|
 z2 F4 E2 | C2 D2 E4 | D4 z4 | z2 G2 F2 E2 | D4 z2 d2 | c2 B2 A4 | D3 E F2 G2 | D8 | G4 z2 d2- | %99
w: et ve-|ri- ta- *|tis,|al- le- lu-|ia, al-|le- lu- ia,|al- * * le-|lu-|ia. I-|
 d2 c2 B2 d2 | c2 B2 A3 G | F2 G3 F D2 | E2 E2 D4 | z8 | z8 | z2 d4 c2 | B2 d4 c2 | B2 A3 G FE | %108
w: * ta- que e-|pu- le- mur _|_ in _ _|Do- mi- no,|||I- ta-|que e- pu-|le mur _ _ _|
 F2 G3 F D2 | E2 E2 D2 F2 | G4 A4 |"^#" D2 G3 F ED | C2 E2 D4 | G4 z4 | G4 E2 D2 | G4 z4 | %116
w: _ in _ _|Do- mi- no, al|le- lu-|ia, al- * * *|le- * lu-|ia,|al- le- lu-|ia,|
 C4 E2 F2 | D4 z4 | G6 C2 | F2 G2 D4 | G8 |] %121
w: al- le- lu-|ia,|al- le-|lu- * *|ia.|

